icons/core/eye-fill-slash.svg

<svg width="32" height="32" viewBox="0 0 32 32" fill="none" xmlns="http://www.w3.org/2000/svg">
<path fill-rule="evenodd" clip-rule="evenodd" d="M23.6134 25.0276L28.7929 30.2071L30.2071 28.7929L3.20711 1.79291L1.79289 3.20712L6.68745 8.10168C6.08726 8.56008 5.53981 9.04611 5.04303 9.54288C2.66817 11.9177 1.42666 14.5582 1.05146 15.6838L0.946045 16L1.05145 16.3162C1.42665 17.4418 2.66816 20.0822 5.04303 22.4571C7.43941 24.8535 11.0152 27 16.0001 27C19.0467 27 21.567 26.1982 23.6134 25.0276ZM19.9539 21.3681L18.0319 19.4462C17.4364 19.7981 16.7418 20 16 20C13.7909 20 12 18.2091 12 16C12 15.2582 12.2019 14.5635 12.5538 13.968L10.6319 12.0461C9.81572 13.1523 9.33333 14.5198 9.33333 16C9.33333 19.6819 12.3181 22.6666 16 22.6666C17.4802 22.6666 18.8477 22.1843 19.9539 21.3681ZM16.0001 4.99999C14.042 4.99999 12.3014 5.33119 10.7642 5.87863L14.4097 9.52416C14.9193 9.39944 15.4519 9.33331 16 9.33331C19.6819 9.33331 22.6667 12.3181 22.6667 16C22.6667 16.548 22.6005 17.0806 22.4758 17.5903L27.1484 22.2629C29.399 19.9398 30.5838 17.4112 30.9488 16.3162L31.0542 16L30.9488 15.6838C30.5736 14.5582 29.3321 11.9177 26.9572 9.54288C24.5609 7.14649 20.985 4.99998 16.0001 4.99999Z" fill="black"/>
</svg>

<svg width="32" height="32" viewBox="0 0 32 32" xmlns="http://www.w3.org/2000/svg">
    <path fill-rule="evenodd" d="M23.613 25.028l5.18 5.18 1.414-1.415-27-27-1.414 1.414 4.894 4.895c-.6.458-1.147.944-1.644 1.44-2.375 2.376-3.616 5.016-3.992 6.142L.946 16l.105.316c.376 1.126 1.617 3.766 3.992 6.141C7.439 24.853 11.015 27 16 27c3.047 0 5.567-.802 7.613-1.972zm-3.66-3.66l-1.921-1.922a4 4 0 01-5.478-5.478l-1.922-1.922a6.667 6.667 0 009.322 9.322zM16 5c-1.958 0-3.699.331-5.236.879l3.646 3.645a6.667 6.667 0 018.066 8.066l4.672 4.673c2.251-2.323 3.436-4.852 3.8-5.947l.106-.316-.105-.316c-.375-1.126-1.617-3.766-3.992-6.141C24.561 7.146 20.985 5 16 5z"/>
</svg>
